X:235
T:C'est a ce joly moys de may (Chanson 1)
S:from bay1.mid
C:Manuscript de Bayeux (fin XVe)
R:Chanson
M:4/4
L:1/8
Q:1/4=120
K:F 
V:1
G2 BB A2 d2 | c3d BA/2G/2 A2 | G4z4 | G2 GG2<d2e | 
f3e d2 c2 | z4 f3e/2f/2 | g4 fd e2 | d4z4 | 
d2 f3/2e/2 d3d | c3/2d/2 cB A2 A2 | z4 G2 BB | A2 d2 c3d | BA/2G/2 A2 G4 |]
V:2
D,2 D,D, D,2 D,D, | D,2 D,D, D,2 D,D, | D,2 D,D, D,2 D,D, | D,2 D,D, D,2 D,D, | 
D,2 D,D, D,2 D,D, | D,2 D,D, D,2 D,D, | D,2 D,D, D,2 D,D, | D,2 D,D, D,2 D,D, | 
D,2 D,D, D,2 D,D, | D,2 D,D, D,2 D,D, | D,2 D,D, D,2 D,D, | D,2 D,D, D,2 D,D, | D,D, D,D, D,4 |]






